Pods/ProtonCore-UIFoundations/libraries/UIFoundations/Sources/Assets.xcassets/Images/IconSet/ic-arrow-up.imageset/ic-arrow-up.svg

<svg width="24" height="24" viewBox="0 0 24 24" fill="none" xmlns="http://www.w3.org/2000/svg">
<path fill-rule="evenodd" clip-rule="evenodd" d="M3.21882 12.4716C3.51273 12.7635 3.9876 12.7618 4.27948 12.4679L11.2473 5.45164L11.2473 20.2467C11.2473 20.661 11.5831 20.9967 11.9973 20.9967C12.4115 20.9967 12.7473 20.661 12.7473 20.2467L12.7473 5.45164L19.7152 12.4679C20.007 12.7618 20.4819 12.7635 20.7758 12.4716C21.0697 12.1797 21.0714 11.7048 20.7795 11.4109L12.7409 3.31645C12.5763 3.15075 12.3704 3.05155 12.1563 3.01884C12.1051 3.00778 12.0519 3.00195 11.9973 3.00195C11.9428 3.00195 11.8896 3.00778 11.8383 3.01884C11.6242 3.05155 11.4183 3.15075 11.2538 3.31645L3.21515 11.4109C2.92327 11.7048 2.92492 12.1797 3.21882 12.4716Z" fill="#0C0C14"/>
</svg>

<svg xmlns="http://www.w3.org/2000/svg" width="24" height="24" viewBox="0 0 24 24">
  <g class="ic-arrow-up">
    <path fill-rule="evenodd" d="M3.218 12.472a.75.75 0 0 0 1.06-.004l6.968-7.016v14.795a.75.75 0 1 0 1.5 0V5.452l6.968 7.016a.75.75 0 0 0 1.064-1.057L12.74 3.316a1.044 1.044 0 0 0-.585-.297.754.754 0 0 0-.318 0c-.214.033-.42.132-.585.297l-8.038 8.095a.75.75 0 0 0 .004 1.06Z" class="Icon"/>
  </g>
</svg>
